modules/feathericon/icons/text-align-center.svg

<svg width="12" height="10" xmlns="http://www.w3.org/2000/svg"><path d="M2 9h8v1H2V9zM0 6h12v1H0V6zm2-3h8v1H2V3zM0 0h12v1H0V0z" fill="#000" fill-rule="evenodd"/></svg>

<?xml version="1.0" encoding="UTF-8"?>
<svg width="12px" height="10px" viewBox="0 0 12 10" version="1.1" xmlns="http://www.w3.org/2000/svg" xmlns:xlink="http://www.w3.org/1999/xlink">
    <!-- Generator: sketchtool 48.1 (47250) - http://www.bohemiancoding.com/sketch -->
    <title>text-align-center</title>
    <desc>Created with sketchtool.</desc>
    <defs></defs>
    <g id="text-edit" stroke="none" stroke-width="1" fill="none" fill-rule="evenodd">
        <g id="text-align-center" fill="#000000">
            <path d="M2,9 L10,9 L10,10 L2,10 L2,9 Z M0,6 L12,6 L12,7 L0,7 L0,6 Z M2,3 L10,3 L10,4 L2,4 L2,3 Z M0,0 L12,0 L12,1 L0,1 L0,0 Z" id="Shape"></path>
        </g>
    </g>
</svg>
